packages/icons/src/SVG/swap.svg

<!-- Generated by IcoMoon.io -->
<svg version="1.1" xmlns="http://www.w3.org/2000/svg" width="12" height="12" viewBox="0 0 12 12">
<title>swap</title>
<path d="M1 2h7v-2l4 3-4 3v-2h-7v-2z"></path>
<path d="M11 8h-7v-2l-4 3 4 3v-2h7v-2z"></path>
</svg>

<svg width="12" height="12" viewBox="0 0 12 12" >
<path d="M1 2H8V0L12 3L8 6V4H1V2Z" />
<path d="M11 8H4V6L0 9L4 12V10H11V8Z" />
</svg>
